X: 19687
T: Jenny Dang The Weaver
R: reel
M: 4/4
K: Dmajor
|:dA A/A/A AFAB|dA A/A/A f2 ef|dB B/B/B BABd|ABde faef:|
|:d2 fd efge|defd e2 dB|A2 fd efge|1 aA A/A/A f2 ef:|2 abag faef||

